img/icon_inform.svg

<svg width="140" height="140" viewBox="0 0 140 140" fill="none" xmlns="http://www.w3.org/2000/svg">
<path d="M70.4252 135.672C106.526 135.672 135.792 106.407 135.792 70.3056C135.792 34.2046 106.526 4.93896 70.4252 4.93896C34.3242 4.93896 5.05853 34.2046 5.05853 70.3056C5.05853 106.407 34.3242 135.672 70.4252 135.672Z" fill="#009AD6" stroke="#009AD6" stroke-width="0.0141667" stroke-miterlimit="1.5" stroke-linejoin="round"/>
<path fill-rule="evenodd" clip-rule="evenodd" d="M111.432 58.4167C111.432 52.0858 106.292 46.9458 99.9614 46.9458H57.7502C51.4192 46.9458 46.2792 52.0858 46.2792 58.4167V92.8294C46.2792 99.1603 51.4192 104.3 57.7502 104.3H111.432V58.4167Z" fill="white"/>
<path fill-rule="evenodd" clip-rule="evenodd" d="M41.3278 95.9319C34.6804 95.5083 29.4116 89.9314 29.4116 83.1238V44.6214C29.4116 37.5378 35.1157 31.7871 42.1414 31.7871H89.5778C95.8411 31.7871 101.054 36.3578 102.112 42.3685C101.137 42.119 100.116 41.9866 99.0659 41.9866H53.004C46.1819 41.9866 40.643 47.5707 40.643 54.4488V91.8354C40.643 93.2702 40.884 94.6485 41.3278 95.9319Z" fill="white"/>
<path fill-rule="evenodd" clip-rule="evenodd" d="M111.419 112.785L102.3 103.154H111.419V112.785Z" fill="white"/>
<path fill-rule="evenodd" clip-rule="evenodd" d="M60.1075 79.2849H97.8749C99.5175 79.2849 100.851 77.9513 100.851 76.3087C100.851 74.6661 99.5175 73.3325 97.8749 73.3325H60.1075C58.4649 73.3325 57.1313 74.6661 57.1313 76.3087C57.1313 77.9513 58.4649 79.2849 60.1075 79.2849Z" fill="#009AD6"/>
<path fill-rule="evenodd" clip-rule="evenodd" d="M61.338 67.7322H96.633C98.2756 67.7322 99.6092 66.3986 99.6092 64.756C99.6092 63.1136 98.2756 61.7798 96.633 61.7798H61.338C59.6954 61.7798 58.3618 63.1136 58.3618 64.756C58.3618 66.3986 59.6954 67.7322 61.338 67.7322Z" fill="#009AD6"/>
<path fill-rule="evenodd" clip-rule="evenodd" d="M61.338 90.0857H96.633C98.2756 90.0857 99.6092 88.7521 99.6092 87.1095C99.6092 85.4669 98.2756 84.1333 96.633 84.1333H61.338C59.6954 84.1333 58.3618 85.4669 58.3618 87.1095C58.3618 88.7521 59.6954 90.0857 61.338 90.0857Z" fill="#009AD6"/>
</svg>

<svg width="140" height="140" fill="none" xmlns="http://www.w3.org/2000/svg"><path d="M70.425 135.672c36.101 0 65.367-29.265 65.367-65.366S106.526 4.939 70.425 4.939c-36.1 0-65.366 29.266-65.366 65.367 0 36.101 29.265 65.366 65.366 65.366z" fill="#009AD6" stroke="#009AD6" stroke-width=".014" stroke-miterlimit="1.5" stroke-linejoin="round"/><path fill-rule="evenodd" clip-rule="evenodd" d="M111.432 58.417c0-6.331-5.14-11.471-11.47-11.471H57.75c-6.33 0-11.47 5.14-11.47 11.47V92.83c0 6.331 5.14 11.471 11.47 11.471h53.682V58.417z" fill="#fff"/><path fill-rule="evenodd" clip-rule="evenodd" d="M41.328 95.932c-6.648-.424-11.916-6-11.916-12.808V44.62c0-7.083 5.704-12.834 12.73-12.834h47.436c6.263 0 11.476 4.57 12.534 10.581a12.275 12.275 0 00-3.046-.381H53.004c-6.822 0-12.361 5.584-12.361 12.462v37.386c0 1.435.241 2.814.685 4.097zm70.091 16.853l-9.119-9.631h9.119v9.631z" fill="#fff"/><path fill-rule="evenodd" clip-rule="evenodd" d="M60.108 79.285h37.767a2.978 2.978 0 002.976-2.976 2.978 2.978 0 00-2.976-2.977H60.108a2.978 2.978 0 00-2.977 2.977 2.978 2.978 0 002.977 2.976zm1.23-11.553h35.295a2.978 2.978 0 002.976-2.976 2.978 2.978 0 00-2.976-2.976H61.338a2.978 2.978 0 00-2.976 2.976 2.978 2.978 0 002.976 2.976zm0 22.354h35.295a2.978 2.978 0 002.976-2.977 2.978 2.978 0 00-2.976-2.976H61.338a2.978 2.978 0 00-2.976 2.977 2.978 2.978 0 002.976 2.976z" fill="#009AD6"/></svg>
